src/assets/icons/weeks,fancy,26.svg

<svg width="48" height="48" viewBox="0 0 48 48" fill="none" xmlns="http://www.w3.org/2000/svg">
<rect opacity="0.2" x="4" y="6" width="40" height="40" rx="4" fill="black"/>
<path d="M7.59002 41H22.1071V37.4801H13.5559V37.3409L16.5289 34.4276C20.715 30.6094 21.8386 28.7003 21.8386 26.3835C21.8386 22.8537 18.9551 20.358 14.59 20.358C10.3145 20.358 7.38121 22.9134 7.39116 26.9105H11.4778C11.4679 24.9616 12.7008 23.7685 14.5602 23.7685C16.35 23.7685 17.6824 24.8821 17.6824 26.6719C17.6824 28.2926 16.688 29.4062 14.8386 31.1861L7.59002 37.8977V41ZM33.0421 41.2784C37.5762 41.2983 40.6685 38.3253 40.6586 34.179C40.6685 30.3608 38.0037 27.6065 34.3944 27.6065C32.1571 27.6065 30.1784 28.6804 29.2637 30.4801H29.1245C29.1444 26.5128 30.5364 24.0469 33.1912 24.0469C34.7523 24.0469 35.8759 24.902 36.204 26.3239H40.4498C40.0421 22.973 37.258 20.358 33.1912 20.358C28.16 20.358 24.9284 24.4347 24.9086 31.2756C24.8986 38.733 28.856 41.2585 33.0421 41.2784ZM33.0222 37.8977C31.0336 37.8977 29.562 36.2969 29.562 34.3082C29.5719 32.3295 31.0733 30.7188 33.052 30.7188C35.0407 30.7188 36.4924 32.2798 36.4824 34.2983C36.4924 36.3366 35.0108 37.8977 33.0222 37.8977Z" fill="black"/>
<g opacity="0.4">
<path d="M10 4C10 2.89543 10.8954 2 12 2C13.1046 2 14 2.89543 14 4V8C14 9.10457 13.1046 10 12 10C10.8954 10 10 9.10457 10 8V4Z" fill="black"/>
<path d="M34 4C34 2.89543 34.8954 2 36 2C37.1046 2 38 2.89543 38 4V8C38 9.10457 37.1046 10 36 10C34.8954 10 34 9.10457 34 8V4Z" fill="black"/>
</g>
<path fill-rule="evenodd" clip-rule="evenodd" d="M10 6.00869C7.52043 6.04456 6.11466 6.22849 5.17157 7.17157C4 8.34315 4 10.2288 4 14V16H44V14C44 10.2288 44 8.34315 42.8284 7.17157C41.8853 6.22849 40.4796 6.04456 38 6.00869V8C38 9.10457 37.1046 10 36 10C34.8954 10 34 9.10457 34 8V6H14V8C14 9.10457 13.1046 10 12 10C10.8954 10 10 9.10457 10 8V6.00869Z" fill="black"/>
</svg>

<svg xmlns="http://www.w3.org/2000/svg" width="48" height="48" fill="none" viewBox="0 0 48 48">
  <rect width="40" height="40" x="4" y="6" fill="#000" opacity=".2" rx="4"/>
  <path fill="#000" d="M7.59 41h14.517v-3.52h-8.551v-.14l2.973-2.912c4.186-3.819 5.31-5.728 5.31-8.044 0-3.53-2.884-6.026-7.249-6.026-4.275 0-7.209 2.555-7.199 6.552h4.087c-.01-1.948 1.223-3.142 3.082-3.142 1.79 0 3.122 1.114 3.122 2.904 0 1.62-.994 2.734-2.843 4.514L7.59 37.898V41zm25.452.278c4.534.02 7.627-2.953 7.617-7.099.01-3.818-2.655-6.573-6.265-6.573-2.237 0-4.216 1.074-5.13 2.874h-.14c.02-3.967 1.412-6.433 4.067-6.433 1.561 0 2.685.855 3.013 2.277h4.246c-.408-3.351-3.192-5.966-7.259-5.966-5.031 0-8.263 4.077-8.282 10.918-.01 7.457 3.947 9.982 8.133 10.002zm-.02-3.38c-1.988 0-3.46-1.601-3.46-3.59.01-1.978 1.511-3.59 3.49-3.59 1.989 0 3.44 1.562 3.43 3.58.01 2.039-1.471 3.6-3.46 3.6z"/>
  <g opacity=".4">
    <path fill="#000" d="M10 4a2 2 0 114 0v4a2 2 0 11-4 0V4zM34 4a2 2 0 114 0v4a2 2 0 11-4 0V4z"/>
  </g>
  <path fill="#000" fill-rule="evenodd" d="M10 6.009c-2.48.036-3.885.22-4.828 1.163C4 8.343 4 10.229 4 14v2h40v-2c0-3.771 0-5.657-1.172-6.828-.943-.944-2.348-1.127-4.828-1.163V8a2 2 0 11-4 0V6H14v2a2 2 0 11-4 0V6.009z" clip-rule="evenodd"/>
</svg>
